X:3823
L:1/8
M:2/2
K:Emin
 E2 ED F2 FD | D2 (EF) DFAF | E2 ED F2 FD | DFAF E2 e2 :| dBBA dBA^c | dBBA d2 (e^c) | dBBA dBA^c | 
 dBAF E2 e2 | dBBA dBA^c | dBBA d2 (e^c) | faef defd | BdAF E2 e2 ||

